svg/outline/milk.svg

<svg width="24" height="24" viewBox="0 0 24 24" fill="none" xmlns="http://www.w3.org/2000/svg">
<path d="M14.0543 5.9846C13.8877 5.67943 13.5659 5.5 13.2182 5.5H10.8159C10.4499 5.5 10.1141 5.69867 9.95067 6.02611C9.38466 7.16039 8.12162 9.90273 8.00819 11.9962C8.00807 11.9983 8.00627 12 8.0041 12C8.00183 12 8 12.0018 8 12.0041V18.5C8 19.6046 8.89543 20.5 10 20.5H14C15.1046 20.5 16 19.6046 16 18.5V12.0031C16 12.0014 15.9986 12 15.9969 12C15.9953 12 15.9939 11.9987 15.9938 11.9971C15.8948 9.60646 14.6263 7.03217 14.0543 5.9846Z" stroke="black"/>
<rect x="9" y="3.5" width="6" height="2" rx="0.5" stroke="black"/>
<path d="M10 12.5C10 14.3333 10 18 10 18" stroke="black" stroke-linecap="round"/>
</svg>

<svg xmlns="http://www.w3.org/2000/svg" fill="none" viewBox="0 0 24 24" stroke="currentColor">
  <path d="M14.054 5.985a.944.944 0 00-.836-.485h-2.402a.96.96 0 00-.865.526c-.566 1.134-1.83 3.877-1.943 5.97a.004.004 0 01-.004.004.004.004 0 00-.004.004V18.5a2 2 0 002 2h4a2 2 0 002-2v-6.497a.003.003 0 00-.003-.003.003.003 0 01-.003-.003c-.1-2.39-1.368-4.965-1.94-6.012z"/>
  <rect width="6" height="2" x="9" y="3.5" rx=".5"/>
  <path stroke-linecap="round" d="M10 12.5V18"/>
</svg>
